X:1
T:Title
L:1/8
M:4/4
K:Eb
V:1 treble nm="Midi_1"
V:1
 B2 B2 c2 d2 | e2 c2"^Descant to AMNS 83 (Savannah)" d4 | B2 c2 d2 d2 | (e"^Andrew Sims"f) g2 f4 | %4
w: Hail the Lord of|earth and heav'n!|praise to thee by|both * be giv'n:|
 e2 _d2 c2 f2 | (ed) c2 (d2 fg) | a2 f2 e2 (G=A) | %7
w: thee we greet tri-|um * phant now ; *|hail, the Re- sur *|
 (Bc) d2"^Written to fit Rawsthorne harmony\n9 April 2016" e4 |] %8
w: rec * tion thou!|

